icons/svg/poi_colored/power_tower.svg

<?xml version="1.0" encoding="UTF-8" standalone="no"?>
<!-- Created with Inkscape (http://www.inkscape.org/) -->

<svg
   xmlns:dc="http://purl.org/dc/elements/1.1/"
   xmlns:cc="http://creativecommons.org/ns#"
   xmlns:rdf="http://www.w3.org/1999/02/22-rdf-syntax-ns#"
   xmlns:svg="http://www.w3.org/2000/svg"
   xmlns="http://www.w3.org/2000/svg"
   xmlns:sodipodi="http://sodipodi.sourceforge.net/DTD/sodipodi-0.dtd"
   xmlns:inkscape="http://www.inkscape.org/namespaces/inkscape"
   version="1.0"
   width="580"
   height="580"
   id="svg2"
   sodipodi:version="0.32"
   inkscape:version="0.91 r"
   sodipodi:docname="power_tower.svg"
   inkscape:output_extension="org.inkscape.output.svg.inkscape">
  <metadata
     id="metadata2975">
    <rdf:RDF>
      <cc:Work
         rdf:about="">
        <dc:format>image/svg+xml</dc:format>
        <dc:type
           rdf:resource="http://purl.org/dc/dcmitype/StillImage" />
        <cc:license
           rdf:resource="http://web.resource.org/cc/PublicDomain" />
        <dc:language>en</dc:language>
        <dc:title></dc:title>
      </cc:Work>
    </rdf:RDF>
  </metadata>
  <sodipodi:namedview
     inkscape:window-height="739"
     inkscape:window-width="1332"
     inkscape:pageshadow="2"
     inkscape:pageopacity="0.0"
     guidetolerance="10.0"
     gridtolerance="10.0"
     objecttolerance="10.0"
     borderopacity="1.0"
     bordercolor="#666666"
     pagecolor="#ffffff"
     id="base"
     inkscape:zoom="0.65172414"
     inkscape:cx="195.35148"
     inkscape:cy="258.33368"
     inkscape:window-x="34"
     inkscape:window-y="1024"
     inkscape:current-layer="svg2"
     showgrid="false"
     inkscape:window-maximized="1" />
  <defs
     id="defs4">
    <inkscape:perspective
       sodipodi:type="inkscape:persp3d"
       inkscape:vp_x="0 : 290 : 1"
       inkscape:vp_y="0 : 1000 : 0"
       inkscape:vp_z="580 : 290 : 1"
       inkscape:persp3d-origin="290 : 193.33333 : 1"
       id="perspective2441" />
    <inkscape:perspective
       id="perspective3452"
       inkscape:persp3d-origin="30 : 20 : 1"
       inkscape:vp_z="60 : 30 : 1"
       inkscape:vp_y="0 : 1000 : 0"
       inkscape:vp_x="0 : 30 : 1"
       sodipodi:type="inkscape:persp3d" />
    <symbol
       viewBox="244.5 110 489 219.9"
       id="symbol-university">
      <path
         id="path4460"
         d="M79,43l57,119c0,0,21-96,104-96s124,106,124,106l43-133l82-17L0,17L79,43z" />
      <path
         id="path4462"
         d="M94,176l-21,39"
         stroke-width="20"
         stroke="#000000"
         fill="none" />
      <path
         id="path4464"
         d="M300,19c0,10.5-22.6,19-50.5,19S199,29.5,199,19s22.6-19,50.5-19S300,8.5,300,19z" />
      <path
         id="path4466"
         d="M112,216l-16-38L64,88c0,0-9-8-4-35s16-24,16-24"
         stroke-width="20"
         stroke="#000000"
         ill="none" />
    </symbol>
    <inkscape:perspective
       id="perspective4471"
       inkscape:persp3d-origin="372.04724 : 350.78739 : 1"
       inkscape:vp_z="744.09448 : 526.18109 : 1"
       inkscape:vp_y="0 : 1000 : 0"
       inkscape:vp_x="0 : 526.18109 : 1"
       sodipodi:type="inkscape:persp3d" />
    <inkscape:perspective
       id="perspective4668"
       inkscape:persp3d-origin="6 : 4 : 1"
       inkscape:vp_z="12 : 6 : 1"
       inkscape:vp_y="0 : 1000 : 0"
       inkscape:vp_x="0 : 6 : 1"
       sodipodi:type="inkscape:persp3d" />
  </defs>
  <g
     id="g1327">
    <path
       d="M 66.275,1.768 C 24.94,1.768 1.704,23.139 1.704,66.804 L 1.704,516.927 C 1.704,557.771 22.599,579.156 63.896,579.156 L 515.92,579.156 C 557.227,579.156 578.149,558.841 578.149,516.927 L 578.149,66.804 C 578.149,24.203 557.227,1.768 514.628,1.768 C 514.624,1.768 66.133,1.625 66.275,1.768 z "
       style="fill:#111;stroke:#eee;stroke-width:3.40799999"
       id="path1329" />
  </g>
  <path
     style="fill:none;stroke:#ffffff;stroke-width:31.73706818;stroke-linecap:round;stroke-linejoin:round;stroke-miterlimit:4;stroke-dasharray:none;stroke-opacity:1"
     d="M 186.77253,548.81378 244.36185,80.347153"
     inkscape:connector-curvature="0"
     sodipodi:nodetypes="cc"
     id="path7" />
  <path
     style="fill:none;stroke:#ffffff;stroke-width:31.73706818;stroke-linecap:round;stroke-linejoin:round;stroke-miterlimit:4;stroke-dasharray:none;stroke-opacity:1"
     d="M 396.26233,551.02896 338.67305,80.347153"
     inkscape:connector-curvature="0"
     sodipodi:nodetypes="cc"
     id="path3806-9" />
  <path
     style="color:#000000;display:inline;overflow:visible;visibility:visible;fill:none;stroke:#ffffff;stroke-width:25.49162292;stroke-linecap:round;stroke-linejoin:round;stroke-miterlimit:4;stroke-dasharray:none;stroke-dashoffset:0;stroke-opacity:1;marker:none;enable-background:accumulate"
     d="m 130.23506,71.48717 317.84857,0"
     inkscape:connector-curvature="0"
     sodipodi:nodetypes="cc"
     id="path10" />
  <path
     style="color:#000000;display:inline;overflow:visible;visibility:visible;fill:none;stroke:#ffffff;stroke-width:25.49162292;stroke-linecap:round;stroke-linejoin:round;stroke-miterlimit:4;stroke-dasharray:none;stroke-dashoffset:0;stroke-opacity:1;marker:none;enable-background:accumulate"
     d="m 131.34257,71.930135 110.19489,-46.071407 89.15264,-0.8845 119.60866,48.729187"
     inkscape:connector-curvature="0"
     sodipodi:nodetypes="cccc"
     id="path12" />
  <path
     style="color:#000000;display:inline;overflow:visible;visibility:visible;fill:none;stroke:#ffffff;stroke-width:25.49162292;stroke-linecap:round;stroke-linejoin:round;stroke-miterlimit:4;stroke-dasharray:none;stroke-dashoffset:0;stroke-opacity:1;marker:none;enable-background:accumulate"
     d="m 126.96827,72.928764 0,52.051776"
     inkscape:connector-curvature="0"
     id="path14" />
  <path
     style="color:#000000;display:inline;overflow:visible;visibility:visible;fill:none;stroke:#ffffff;stroke-width:25.49162292;stroke-linecap:round;stroke-linejoin:round;stroke-miterlimit:4;stroke-dasharray:none;stroke-dashoffset:0;stroke-opacity:1;marker:none;enable-background:accumulate"
     d="m 450.48255,72.928764 0,52.051776"
     inkscape:connector-curvature="0"
     id="path16" />
  <path
     style="color:#000000;display:inline;overflow:visible;visibility:visible;fill:none;stroke:#ffffff;stroke-width:25.49162292;stroke-linecap:round;stroke-linejoin:round;stroke-miterlimit:4;stroke-dasharray:none;stroke-dashoffset:0;stroke-opacity:1;marker:none;enable-background:accumulate"
     d="m 42.52659,280.51847 492.05149,0"
     inkscape:connector-curvature="0"
     sodipodi:nodetypes="cc"
     id="path18" />
  <path
     style="color:#000000;display:inline;overflow:visible;visibility:visible;fill:none;stroke:#ffffff;stroke-width:25.49162292;stroke-linecap:round;stroke-linejoin:round;stroke-miterlimit:4;stroke-dasharray:none;stroke-dashoffset:0;stroke-opacity:1;marker:none;enable-background:accumulate"
     d="m 44.241067,280.51847 170.589313,-57.58953 138.01445,-1.10562 185.16223,60.91175"
     inkscape:connector-curvature="0"
     sodipodi:nodetypes="cccc"
     id="path20" />
  <path
     style="color:#000000;display:inline;overflow:visible;visibility:visible;fill:none;stroke:#ffffff;stroke-width:25.49162292;stroke-linecap:round;stroke-linejoin:round;stroke-miterlimit:4;stroke-dasharray:none;stroke-dashoffset:0;stroke-opacity:1;marker:none;enable-background:accumulate"
     d="m 41.691784,280.51847 0,52.05176"
     inkscape:connector-curvature="0"
     id="path22" />
  <path
     style="color:#000000;display:inline;overflow:visible;visibility:visible;fill:none;stroke:#ffffff;stroke-width:25.49162292;stroke-linecap:round;stroke-linejoin:round;stroke-miterlimit:4;stroke-dasharray:none;stroke-dashoffset:0;stroke-opacity:1;marker:none;enable-background:accumulate"
     d="m 538.30822,281.62588 0,52.05176"
     inkscape:connector-curvature="0"
     id="path24" />
  <path
     style="fill:none;stroke:#ffffff;stroke-width:19.11871529;stroke-linecap:round;stroke-linejoin:round;stroke-miterlimit:4;stroke-dasharray:none;stroke-opacity:1"
     d="M 188.98749,545.4912 379.47519,410.03355 204.46158,281.92868"
     inkscape:connector-curvature="0"
     sodipodi:nodetypes="ccc"
     id="path26" />
  <path
     style="fill:none;stroke:#ffffff;stroke-width:19.11871529;stroke-linecap:butt;stroke-linejoin:round;stroke-miterlimit:4;stroke-dasharray:none;stroke-opacity:1"
     d="M 392.22098,545.4912 201.73331,411.60853 376.74694,284.9934"
     inkscape:connector-curvature="0"
     sodipodi:nodetypes="ccc"
     id="path28" />
  <path
     style="color:#000000;display:inline;overflow:visible;visibility:visible;fill:none;stroke:#ffffff;stroke-width:19.11871529;stroke-linecap:butt;stroke-linejoin:miter;stroke-miterlimit:4;stroke-dasharray:none;stroke-dashoffset:0;stroke-opacity:1;marker:none;enable-background:accumulate"
     d="M 225.53456,281.52958 346.25052,174.08742 251.00674,80.361063"
     inkscape:connector-curvature="0"
     sodipodi:nodetypes="ccc"
     id="path30" />
  <path
     style="color:#000000;display:inline;overflow:visible;visibility:visible;fill:none;stroke:#ffffff;stroke-width:19.11871529;stroke-linecap:butt;stroke-linejoin:miter;stroke-miterlimit:4;stroke-dasharray:none;stroke-dashoffset:0;stroke-opacity:1;marker:none;enable-background:accumulate"
     d="M 358.00546,281.07699 237.28946,173.63482 332.5332,79.908826"
     inkscape:connector-curvature="0"
     sodipodi:nodetypes="ccc"
     id="path32" />
</svg>

<svg width="580" height="580" viewBox="0 0 580 580" fill="none" xmlns="http://www.w3.org/2000/svg">
<g clip-path="url(#clip0)">
<path d="M66.2751 1.76815C24.9401 1.76815 1.7041 23.1391 1.7041 66.8041V516.927C1.7041 557.771 22.5991 579.156 63.8961 579.156H515.92C557.227 579.156 578.149 558.841 578.149 516.927V66.8041C578.149 24.2031 557.227 1.76815 514.628 1.76815C514.624 1.76815 66.1331 1.62515 66.2751 1.76815Z" fill="#111111" stroke="#EEEEEE" stroke-width="3.408"/>
<path d="M186.772 548.814L244.362 80.3472" stroke="white" stroke-width="31.7371" stroke-linecap="round" stroke-linejoin="round"/>
<path d="M396.262 551.029L338.673 80.3472" stroke="white" stroke-width="31.7371" stroke-linecap="round" stroke-linejoin="round"/>
<path d="M130.235 71.4873H448.083" stroke="white" stroke-width="25.4916" stroke-linecap="round" stroke-linejoin="round"/>
<path d="M131.343 71.93L241.538 25.8586L330.69 24.9741L450.299 73.7033" stroke="white" stroke-width="25.4916" stroke-linecap="round" stroke-linejoin="round"/>
<path d="M126.968 72.9287V124.98" stroke="white" stroke-width="25.4916" stroke-linecap="round" stroke-linejoin="round"/>
<path d="M450.482 72.9287V124.98" stroke="white" stroke-width="25.4916" stroke-linecap="round" stroke-linejoin="round"/>
<path d="M42.5264 280.519H534.578" stroke="white" stroke-width="25.4916" stroke-linecap="round" stroke-linejoin="round"/>
<path d="M44.2412 280.518L214.831 222.929L352.845 221.823L538.007 282.735" stroke="white" stroke-width="25.4916" stroke-linecap="round" stroke-linejoin="round"/>
<path d="M41.6919 280.519V332.57" stroke="white" stroke-width="25.4916" stroke-linecap="round" stroke-linejoin="round"/>
<path d="M538.308 281.626V333.678" stroke="white" stroke-width="25.4916" stroke-linecap="round" stroke-linejoin="round"/>
<path d="M188.987 545.491L379.475 410.034L204.461 281.929" stroke="white" stroke-width="19.1187" stroke-linecap="round" stroke-linejoin="round"/>
<path d="M392.221 545.491L201.733 411.608L376.747 284.993" stroke="white" stroke-width="19.1187" stroke-linejoin="round"/>
<path d="M225.535 281.529L346.251 174.087L251.007 80.3608" stroke="white" stroke-width="19.1187"/>
<path d="M358.006 281.077L237.29 173.635L332.533 79.9087" stroke="white" stroke-width="19.1187"/>
</g>
<defs>
<clipPath id="clip0">
<path d="M0 0H580V580H0V0Z" fill="white"/>
</clipPath>
</defs>
</svg>
